images/svg/c.svg

<svg width="13" height="14" viewBox="0 0 13 14" fill="none" xmlns="http://www.w3.org/2000/svg">
<path d="M11.0566 10.0204L12.4226 11.4122C11.1167 12.907 9.50162 13.6544 7.57722 13.6544C5.67 13.6544 4.08066 13.0445 2.80918 11.8245C1.55488 10.5874 0.927734 9.03242 0.927734 7.15956C0.927734 5.26953 1.57206 3.70596 2.86072 2.46884C4.14938 1.21455 5.7731 0.587402 7.73186 0.587402C9.65626 0.587402 11.28 1.30905 12.603 2.75235L11.2628 4.22142C10.6614 3.63723 10.0944 3.23345 9.56176 3.01008C9.02911 2.78671 8.40196 2.67503 7.68031 2.67503C6.39165 2.67503 5.30918 3.0874 4.43289 3.91214C3.57378 4.73688 3.14423 5.78499 3.14423 7.05647C3.14423 8.31077 3.57378 9.37606 4.43289 10.2524C5.292 11.1287 6.31433 11.5668 7.4999 11.5668C8.22155 11.5668 8.84011 11.4465 9.35557 11.206C9.88822 10.9654 10.4552 10.5702 11.0566 10.0204Z" fill="white"/>
</svg>

<svg width="13" height="14" fill="none" xmlns="http://www.w3.org/2000/svg"><path d="M11.057 10.02l1.366 1.392c-1.306 1.495-2.921 2.242-4.846 2.242-1.907 0-3.496-.61-4.768-1.83C1.555 10.588.928 9.033.928 7.16c0-1.89.644-3.454 1.933-4.691C4.149 1.215 5.773.587 7.73.587c1.925 0 3.549.722 4.872 2.165l-1.34 1.47c-.602-.585-1.169-.989-1.701-1.212-.533-.223-1.16-.335-1.882-.335-1.288 0-2.37.412-3.247 1.237-.86.825-1.289 1.873-1.289 3.144 0 1.255.43 2.32 1.289 3.196.859.877 1.881 1.315 3.067 1.315.722 0 1.34-.12 1.856-.361.532-.24 1.1-.636 1.7-1.186z" fill="#fff"/></svg>
